src/icons/europower.svg

<svg width="252" height="29" viewBox="0 0 252 29" fill="none" xmlns="http://www.w3.org/2000/svg">
<path d="M2.11154 28H21.4225V22.4332H8.13903V17.3271H19.0039V11.9523H8.10063C8.10063 10.1479 8.13903 8.38188 8.13903 6.61586H21.0002V1.08747H2.14993L2.11154 28ZM50.9109 14.2174V1.08747H44.9986V13.7567C44.9986 19.3235 42.4263 22.3948 39.1631 22.3948C35.5542 22.3948 33.0588 19.9378 33.0588 13.9103V1.08747H27.1849C27.1849 5.5025 27.1465 10.1479 27.1465 14.5629C27.1081 22.9707 31.6767 28.3839 39.1631 28.3839C46.4191 28.3839 50.9109 22.9323 50.9109 14.2174ZM72.0443 28H77.7646V26.6563L70.6238 17.3655C74.079 16.3673 77.1888 13.2192 77.1888 9.22649C77.1888 4.31236 74.3862 1.08747 69.0497 1.08747H56.3037L56.3421 28H62.2544V17.8646H64.174L72.0443 28ZM71.3916 9.30328C71.3916 10.7238 70.3935 12.1443 67.8212 12.1443C67.8212 12.1443 64.2508 12.1059 62.2544 12.1059V6.61586H68.1283C70.7006 6.61586 71.3916 7.92118 71.3916 9.30328ZM108.155 14.6781C108.155 5.34894 101.398 0.319635 94.7175 0.319635C88.0758 0.319635 81.2805 4.84985 81.2805 14.5629C81.2805 23.9689 88.0758 28.7294 94.7175 28.7294C101.359 28.7294 108.155 24.0841 108.155 14.6781ZM102.473 14.6781C102.473 19.2851 99.8236 22.8939 94.7175 22.8939C89.6115 22.8939 86.9624 19.1699 86.9624 14.6781C86.9624 9.91754 89.6115 6.15516 94.7175 6.15516C99.7852 6.15516 102.473 9.99433 102.473 14.6781ZM133.435 10.8006C133.435 4.58111 129.442 1.08747 124.106 1.08747H112.934L112.895 28H118.923V20.3601H123.991C128.866 20.3601 133.435 16.8664 133.435 10.8006ZM127.676 10.8773C127.676 12.9889 125.949 14.7549 123.376 14.7549H118.923V7.07656H123.683C126.179 7.07656 127.676 8.53544 127.676 10.8773ZM164.559 14.6781C164.559 5.34894 157.802 0.319635 151.122 0.319635C144.48 0.319635 137.685 4.84985 137.685 14.5629C137.685 23.9689 144.48 28.7294 151.122 28.7294C157.764 28.7294 164.559 24.0841 164.559 14.6781ZM158.877 14.6781C158.877 19.2851 156.228 22.8939 151.122 22.8939C146.016 22.8939 143.367 19.1699 143.367 14.6781C143.367 9.91754 146.016 6.15516 151.122 6.15516C156.189 6.15516 158.877 9.99433 158.877 14.6781ZM192.766 28L201.02 2.08565V1.08747H195.569C193.995 6.4239 192.613 11.8755 191.039 17.212L186.316 1.08747H181.21C179.828 6.30873 178.715 11.6836 177.371 16.9048L172.342 1.08747H166.238V2.08565L174.799 28H179.137C180.788 22.2413 182.132 16.137 183.783 10.4166L188.85 28H192.766ZM204.906 28H224.217V22.4332H210.934V17.3271H221.799V11.9523H210.895C210.895 10.1479 210.934 8.38188 210.934 6.61586H223.795V1.08747H204.945L204.906 28ZM245.643 28H251.364V26.6563L244.223 17.3655C247.678 16.3673 250.788 13.2192 250.788 9.22649C250.788 4.31236 247.985 1.08747 242.649 1.08747H229.903L229.941 28H235.854V17.8646H237.773L245.643 28ZM244.991 9.30328C244.991 10.7238 243.993 12.1443 241.42 12.1443C241.42 12.1443 237.85 12.1059 235.854 12.1059V6.61586H241.727C244.3 6.61586 244.991 7.92118 244.991 9.30328Z" fill="#456423"/>
</svg>

<svg xmlns="http://www.w3.org/2000/svg" viewBox="0 0 252 29">
  <title>Europower</title>
  <path fill="var(--logo-fill-color)" d="M2.112 28h19.31v-5.567H8.14v-5.106h10.865v-5.375H8.1c0-1.804.038-3.57.038-5.336H21V1.087H2.15L2.112 28ZM50.91 14.217V1.087h-5.912v12.67c0 5.566-2.573 8.638-5.836 8.638-3.609 0-6.104-2.457-6.104-8.485V1.087h-5.874c0 4.416-.038 9.06-.038 13.476-.039 8.408 4.53 13.82 12.016 13.82 7.256 0 11.748-5.45 11.748-14.166ZM72.044 28h5.72v-1.344l-7.14-9.29c3.455-.999 6.565-4.147 6.565-8.14 0-4.914-2.803-8.139-8.14-8.139H56.305L56.342 28h5.912V17.865h1.92L72.044 28Zm-.652-18.697c0 1.42-.998 2.841-3.57 2.841 0 0-3.571-.038-5.568-.038v-5.49h5.874c2.573 0 3.264 1.305 3.264 2.687Zm36.763 5.375c0-9.33-6.757-14.358-13.438-14.358-6.641 0-13.436 4.53-13.436 14.243 0 9.406 6.795 14.166 13.436 14.166 6.642 0 13.438-4.645 13.438-14.05Zm-5.682 0c0 4.607-2.65 8.216-7.755 8.216-5.106 0-7.756-3.724-7.756-8.216 0-4.76 2.65-8.523 7.755-8.523 5.068 0 7.756 3.84 7.756 8.523Zm30.962-3.877c0-6.22-3.993-9.714-9.329-9.714h-11.172L112.895 28h6.028v-7.64h5.068c4.875 0 9.444-3.494 9.444-9.56Zm-5.759.076c0 2.112-1.727 3.878-4.3 3.878h-4.453V7.077h4.76c2.496 0 3.993 1.458 3.993 3.8Zm36.883 3.801c0-9.33-6.757-14.358-13.437-14.358-6.642 0-13.437 4.53-13.437 14.243 0 9.406 6.795 14.166 13.437 14.166 6.642 0 13.437-4.645 13.437-14.05Zm-5.682 0c0 4.607-2.649 8.216-7.755 8.216s-7.755-3.724-7.755-8.216c0-4.76 2.649-8.523 7.755-8.523 5.067 0 7.755 3.84 7.755 8.523ZM192.766 28l8.254-25.914v-.999h-5.451c-1.574 5.337-2.956 10.789-4.53 16.125l-4.723-16.125h-5.106c-1.382 5.222-2.495 10.597-3.839 15.818l-5.029-15.818h-6.104v.999L174.799 28h4.338c1.651-5.759 2.995-11.863 4.646-17.583L188.85 28h3.916Zm12.14 0h19.311v-5.567h-13.283v-5.106h10.865v-5.375h-10.904c0-1.804.039-3.57.039-5.336h12.861V1.087h-18.85L204.906 28Zm40.737 0h5.721v-1.344l-7.141-9.29c3.455-.999 6.565-4.147 6.565-8.14 0-4.914-2.803-8.139-8.139-8.139h-12.746L229.941 28h5.913V17.865h1.919L245.643 28Zm-.652-18.697c0 1.42-.998 2.841-3.571 2.841 0 0-3.57-.038-5.566-.038v-5.49h5.873c2.573 0 3.264 1.305 3.264 2.687Z"/>
</svg>
